kora-light/actions/scalable/im-ban-user.svg

<svg xmlns="http://www.w3.org/2000/svg" style="fill-rule:evenodd;clip-rule:evenodd;stroke-linejoin:round;stroke-miterlimit:2" width="100%" height="100%" version="1.1" viewBox="0 0 16 16" xml:space="preserve">
 <defs>
  <style id="current-color-scheme" type="text/css">
   .ColorScheme-Text { color:#444444; } .ColorScheme-Highlight { color:#4285f4; } .ColorScheme-NeutralText { color:#ff9800; } .ColorScheme-PositiveText { color:#4caf50; } .ColorScheme-NegativeText { color:#f44336; }
  </style>
 </defs>
 <path style="fill:currentColor;" class="ColorScheme-Text" d="M8.121,2.12c1.339,0 2.595,1.247 2.419,2.763c-0.176,1.52 -1.08,2.764 -2.419,2.764c-1.338,0 -2.194,-1.188 -2.418,-2.764c-0.216,-1.51 1.08,-2.763 2.418,-2.763Z"/>
 <path style="fill:currentColor;fill-opacity:0.5" class="ColorScheme-Text" d="M8.093,10.452c-0,-0.001 0.735,-1.587 0.873,-1.953c1.409,0.074 2.485,0.371 3.271,0.707c0.902,0.386 1.414,2.231 1.663,3.484c0.078,0.272 0.024,0.565 -0.146,0.791c-0.17,0.226 -0.437,0.359 -0.72,0.359c-2.245,0.039 -7.47,0.039 -9.793,0.039c-0.305,0 -0.592,-0.148 -0.768,-0.398c-0.176,-0.25 -0.22,-0.569 -0.117,-0.857c0.359,-1.209 0.96,-2.946 1.789,-3.379c0.73,-0.382 1.718,-0.631 3.001,-0.724l0.947,1.93Z"/>
 <path style="fill:currentColor;" class="ColorScheme-NegativeText" d="M12.5,9c-1.92,0 -3.5,1.58 -3.5,3.5c0,1.92 1.58,3.5 3.5,3.5c1.92,0 3.5,-1.58 3.5,-3.5c0,-1.92 -1.58,-3.5 -3.5,-3.5Zm-1.414,1.379l1.414,1.414l1.414,-1.414l0.707,0.707l-1.414,1.414l1.414,1.414l-0.707,0.707l-1.414,-1.414l-1.414,1.414l-0.707,-0.707l1.414,-1.414l-1.414,-1.414l0.707,-0.707Z"/>
</svg>

<svg xmlns="http://www.w3.org/2000/svg" width="16" height="16" version="1.1">
 <defs>
  <style id="current-color-scheme" type="text/css">
   .ColorScheme-Text { color:#444444; } .ColorScheme-Highlight { color:#4285f4; }
  </style>
 </defs>
 <path style="fill:currentColor" class="ColorScheme-Text" d="M 8,9 C 3.568,9 0,12.122 0,16 H 10 C 8.741,15 8,13.574 8,12 8,10.937 8.362,9.8505 9,9 Z M 8,0 A 4,4 0 0 0 4,4 4,4 0 0 0 8,8 4,4 0 0 0 12,4 4,4 0 0 0 8,0 Z"/>
 <path style="fill:currentColor" class="ColorScheme-Highlight" d="M 12.5,9 A 3.5,3.5 0 0 0 9,12.5 3.5,3.5 0 0 0 12.5,16 3.5,3.5 0 0 0 16,12.5 3.5,3.5 0 0 0 12.5,9 Z M 11.086,10.379 12.5,11.793 13.914,10.379 14.621,11.086 13.207,12.5 14.621,13.914 13.914,14.621 12.5,13.207 11.086,14.621 10.379,13.914 11.793,12.5 10.379,11.086 Z"/>
</svg>
